X:46
T:Over the Moor to Maggie
M:4/4
L:1/8
R:reel
K:G
BA|G2GA BABd|efge dBAG|EAAG ABAG|EAAG AcBA|
G2GA BABd|efge dBAG|EGG2 BGAG|DGGF G2:|
ga|b2gb a2fa|gfge dcBd|eaag abag|eaag a2ga|
b2gb a2fa|gfge dcBd|egg2 bgag|dggf g2:|
cd|e3c d3B|c3A B2AG|EAAG ABAG|EAAG A2cd|
e3c d3B|c3A B2AG|EGG2 BGAG|DGGF G2:|
